X:1
T: Breeches Mary
C:
R:Jig
Q:180
K:Am
M:6/8
L:1/16
f2|e2A2A2 B2G2G2|G2B2d2 d2c2B2|e2g2g2 d2g2g2|B2G2B2 d2c2B2|e2A2A2 B2G2G2|G2B2d2 d2c2B2|e^fg2e2 d2c2B2|c2A2A2 A4f2|
e2A2A2 B2G2G2|G2B2d2 d2c2B2|e2g2g2 d2g2g2|B2G2B2 d2c2B2|e2A2A2 B2G2G2|G2B2d2 d2c2B2|e^fg2e2 d2c2B2|c2A2A2 A4e2|
e2a2a2 a2^g2a2|e2=g2g2 g2e2d2|e2a2a2 a2^g2a2|B2A2B2 d2c2B2|e2a2a2 a2^g2a2|e2=g2g2 g2e2d2|e^fg2e2 d2c2B2|c2A2A2 A4e2|
e2a2a2 a2^g2a2|e2=g2g2 g2e2d2|e2a2a2 a2^g2a2|B2A2B2 d2c2B2|e2a2a2 a2^g2a2|e2=g2g2 g2e2d2|e^fg2e2 d2c2B2|c2A2A2 A4||
